images/50331055.svg

<?xml version="1.0" encoding="UTF-8"?>
<svg xmlns="http://www.w3.org/2000/svg" xmlns:xlink="http://www.w3.org/1999/xlink" width="300pt" height="300pt" viewBox="0 0 300 300" version="1.1">
<defs>
<g>
<symbol overflow="visible" id="glyph0-0">
<path style="stroke:none;" d="M 0.453125 1.59375 L 0.453125 -6.34375 L 4.953125 -6.34375 L 4.953125 1.59375 Z M 0.953125 1.09375 L 4.453125 1.09375 L 4.453125 -5.84375 L 0.953125 -5.84375 Z M 0.953125 1.09375 "/>
</symbol>
<symbol overflow="visible" id="glyph0-1">
<path style="stroke:none;" d="M 0.890625 -6.5625 L 4.65625 -6.5625 L 4.65625 -5.8125 L 1.765625 -5.8125 L 1.765625 -3.875 L 4.375 -3.875 L 4.375 -3.140625 L 1.765625 -3.140625 L 1.765625 0 L 0.890625 0 Z M 0.890625 -6.5625 "/>
</symbol>
<symbol overflow="visible" id="glyph0-2">
<path style="stroke:none;" d="M 0.890625 -6.5625 L 2.078125 -6.5625 L 4.984375 -1.078125 L 4.984375 -6.5625 L 5.84375 -6.5625 L 5.84375 0 L 4.65625 0 L 1.75 -5.484375 L 1.75 0 L 0.890625 0 Z M 0.890625 -6.5625 "/>
</symbol>
<symbol overflow="visible" id="glyph0-3">
<path style="stroke:none;" d="M 0.890625 -6.5625 L 1.765625 -6.5625 L 1.765625 -3.875 L 5 -3.875 L 5 -6.5625 L 5.890625 -6.5625 L 5.890625 0 L 5 0 L 5 -3.125 L 1.765625 -3.125 L 1.765625 0 L 0.890625 0 Z M 0.890625 -6.5625 "/>
</symbol>
<symbol overflow="visible" id="glyph0-4">
<path style="stroke:none;" d="M 3.546875 -5.953125 C 2.898438 -5.953125 2.382812 -5.710938 2 -5.234375 C 1.625 -4.753906 1.4375 -4.101562 1.4375 -3.28125 C 1.4375 -2.445312 1.625 -1.789062 2 -1.3125 C 2.382812 -0.832031 2.898438 -0.59375 3.546875 -0.59375 C 4.191406 -0.59375 4.703125 -0.832031 5.078125 -1.3125 C 5.453125 -1.789062 5.640625 -2.445312 5.640625 -3.28125 C 5.640625 -4.101562 5.453125 -4.753906 5.078125 -5.234375 C 4.703125 -5.710938 4.191406 -5.953125 3.546875 -5.953125 Z M 3.546875 -6.6875 C 4.460938 -6.6875 5.195312 -6.375 5.75 -5.75 C 6.300781 -5.132812 6.578125 -4.3125 6.578125 -3.28125 C 6.578125 -2.238281 6.300781 -1.410156 5.75 -0.796875 C 5.195312 -0.179688 4.460938 0.125 3.546875 0.125 C 2.617188 0.125 1.878906 -0.179688 1.328125 -0.796875 C 0.773438 -1.410156 0.5 -2.238281 0.5 -3.28125 C 0.5 -4.3125 0.773438 -5.132812 1.328125 -5.75 C 1.878906 -6.375 2.617188 -6.6875 3.546875 -6.6875 Z M 3.546875 -6.6875 "/>
</symbol>
</g>
</defs>
<g id="surface16181">
<rect x="0" y="0" width="300" height="300" style="fill:rgb(100%,100%,100%);fill-opacity:1;stroke:none;"/>
<path style="fill:none;stroke-width:1.2;stroke-linecap:butt;stroke-linejoin:miter;stroke:rgb(20%,80%,80%);stroke-opacity:1;stroke-miterlimit:10;" d="M 35.25 183.738281 L 43.230469 178.425781 "/>
<path style="fill:none;stroke-width:1.2;stroke-linecap:butt;stroke-linejoin:miter;stroke:rgb(0%,0%,0%);stroke-opacity:1;stroke-miterlimit:10;" d="M 43.230469 178.425781 L 51.207031 173.113281 "/>
<path style=" stroke:none;fill-rule:nonzero;fill:rgb(100%,100%,100%);fill-opacity:1;" d="M 29.25 178.238281 L 35.25 178.238281 L 35.25 189.238281 L 29.25 189.238281 Z M 29.25 178.238281 "/>
<g style="fill:rgb(20%,80%,80%);fill-opacity:1;">
  <use xlink:href="#glyph0-1" x="29.25" y="186.901367"/>
</g>
<path style="fill:none;stroke-width:1.2;stroke-linecap:butt;stroke-linejoin:miter;stroke:rgb(0%,0%,0%);stroke-opacity:1;stroke-miterlimit:10;" d="M 51.207031 173.113281 L 49.988281 153.984375 "/>
<path style="fill:none;stroke-width:1.2;stroke-linecap:butt;stroke-linejoin:miter;stroke:rgb(0%,0%,0%);stroke-opacity:1;stroke-miterlimit:10;" d="M 55.585938 170.914062 L 54.609375 155.609375 "/>
<path style="fill:none;stroke-width:1.2;stroke-linecap:butt;stroke-linejoin:miter;stroke:rgb(0%,0%,0%);stroke-opacity:1;stroke-miterlimit:10;" d="M 68.386719 181.621094 L 51.207031 173.113281 "/>
<path style="fill:none;stroke-width:1.2;stroke-linecap:butt;stroke-linejoin:miter;stroke:rgb(0%,0%,0%);stroke-opacity:1;stroke-miterlimit:10;" d="M 49.988281 153.984375 L 65.945312 143.363281 "/>
<path style="fill:none;stroke-width:1.2;stroke-linecap:butt;stroke-linejoin:miter;stroke:rgb(0%,0%,0%);stroke-opacity:1;stroke-miterlimit:10;" d="M 65.945312 143.363281 L 83.121094 151.871094 "/>
<path style="fill:none;stroke-width:1.2;stroke-linecap:butt;stroke-linejoin:miter;stroke:rgb(0%,0%,0%);stroke-opacity:1;stroke-miterlimit:10;" d="M 65.660156 148.253906 L 79.402344 155.0625 "/>
<path style="fill:none;stroke-width:1.2;stroke-linecap:butt;stroke-linejoin:miter;stroke:rgb(0%,0%,0%);stroke-opacity:1;stroke-miterlimit:10;" d="M 83.121094 151.871094 L 91.101562 146.558594 "/>
<path style="fill:none;stroke-width:1.2;stroke-linecap:butt;stroke-linejoin:miter;stroke:rgb(0%,0%,100%);stroke-opacity:1;stroke-miterlimit:10;" d="M 91.101562 146.558594 L 99.078125 141.246094 "/>
<path style="fill:none;stroke-width:1.2;stroke-linecap:butt;stroke-linejoin:miter;stroke:rgb(0%,0%,0%);stroke-opacity:1;stroke-miterlimit:10;" d="M 83.121094 151.871094 L 84.34375 171 "/>
<path style="fill:none;stroke-width:1.2;stroke-linecap:butt;stroke-linejoin:miter;stroke:rgb(0%,0%,100%);stroke-opacity:1;stroke-miterlimit:10;" d="M 99.078125 141.246094 L 107.667969 145.5 "/>
<path style="fill:none;stroke-width:1.2;stroke-linecap:butt;stroke-linejoin:miter;stroke:rgb(0%,0%,0%);stroke-opacity:1;stroke-miterlimit:10;" d="M 107.667969 145.5 L 116.257812 149.753906 "/>
<path style=" stroke:none;fill-rule:nonzero;fill:rgb(100%,100%,100%);fill-opacity:1;" d="M 92.078125 135.746094 L 106.078125 135.746094 L 106.078125 146.746094 L 92.078125 146.746094 Z M 92.078125 135.746094 "/>
<g style="fill:rgb(0%,0%,100%);fill-opacity:1;">
  <use xlink:href="#glyph0-2" x="92.078125" y="144.40918"/>
  <use xlink:href="#glyph0-3" x="99.055664" y="144.40918"/>
</g>
<path style="fill:none;stroke-width:1.2;stroke-linecap:butt;stroke-linejoin:miter;stroke:rgb(0%,0%,0%);stroke-opacity:1;stroke-miterlimit:10;" d="M 116.257812 149.753906 L 116.867188 159.320312 "/>
<path style="fill:none;stroke-width:1.2;stroke-linecap:butt;stroke-linejoin:miter;stroke:rgb(0%,0%,100%);stroke-opacity:1;stroke-miterlimit:10;" d="M 116.867188 159.320312 L 117.476562 168.886719 "/>
<path style="fill:none;stroke-width:1.2;stroke-linecap:butt;stroke-linejoin:miter;stroke:rgb(0%,0%,0%);stroke-opacity:1;stroke-miterlimit:10;" d="M 120.878906 151.382812 L 121.367188 159.035156 "/>
<path style="fill:none;stroke-width:1.2;stroke-linecap:butt;stroke-linejoin:miter;stroke:rgb(0%,0%,100%);stroke-opacity:1;stroke-miterlimit:10;" d="M 121.367188 159.035156 L 121.855469 166.6875 "/>
<path style="fill:none;stroke-width:1.2;stroke-linecap:butt;stroke-linejoin:miter;stroke:rgb(0%,0%,0%);stroke-opacity:1;stroke-miterlimit:10;" d="M 132.214844 139.132812 L 116.257812 149.753906 "/>
<path style="fill:none;stroke-width:1.2;stroke-linecap:butt;stroke-linejoin:miter;stroke:rgb(0%,0%,100%);stroke-opacity:1;stroke-miterlimit:10;" d="M 117.476562 168.886719 L 126.066406 173.140625 "/>
<path style="fill:none;stroke-width:1.2;stroke-linecap:butt;stroke-linejoin:miter;stroke:rgb(0%,0%,0%);stroke-opacity:1;stroke-miterlimit:10;" d="M 126.066406 173.140625 L 134.65625 177.394531 "/>
<path style=" stroke:none;fill-rule:nonzero;fill:rgb(100%,100%,100%);fill-opacity:1;" d="M 114.476562 163.386719 L 121.476562 163.386719 L 121.476562 174.386719 L 114.476562 174.386719 Z M 114.476562 163.386719 "/>
<g style="fill:rgb(0%,0%,100%);fill-opacity:1;">
  <use xlink:href="#glyph0-2" x="114.476562" y="172.049805"/>
</g>
<path style="fill:none;stroke-width:1.2;stroke-linecap:butt;stroke-linejoin:miter;stroke:rgb(0%,0%,0%);stroke-opacity:1;stroke-miterlimit:10;" d="M 134.65625 177.394531 L 150.613281 166.773438 "/>
<path style="fill:none;stroke-width:1.2;stroke-linecap:butt;stroke-linejoin:miter;stroke:rgb(0%,0%,0%);stroke-opacity:1;stroke-miterlimit:10;" d="M 133.753906 172.578125 L 146.519531 164.078125 "/>
<path style="fill:none;stroke-width:1.2;stroke-linecap:butt;stroke-linejoin:miter;stroke:rgb(0%,0%,0%);stroke-opacity:1;stroke-miterlimit:10;" d="M 150.613281 166.773438 L 149.394531 147.640625 "/>
<path style="fill:none;stroke-width:1.2;stroke-linecap:butt;stroke-linejoin:miter;stroke:rgb(0%,0%,0%);stroke-opacity:1;stroke-miterlimit:10;" d="M 149.394531 147.640625 L 132.214844 139.132812 "/>
<path style="fill:none;stroke-width:1.2;stroke-linecap:butt;stroke-linejoin:miter;stroke:rgb(0%,0%,0%);stroke-opacity:1;stroke-miterlimit:10;" d="M 145.671875 150.832031 L 131.929688 144.027344 "/>
<path style="fill:none;stroke-width:1.2;stroke-linecap:butt;stroke-linejoin:miter;stroke:rgb(0%,0%,0%);stroke-opacity:1;stroke-miterlimit:10;" d="M 149.394531 147.640625 L 165.351562 137.019531 "/>
<path style="fill:none;stroke-width:1.2;stroke-linecap:butt;stroke-linejoin:miter;stroke:rgb(0%,0%,0%);stroke-opacity:1;stroke-miterlimit:10;" d="M 165.351562 137.019531 L 182.527344 145.527344 "/>
<path style="fill:none;stroke-width:1.2;stroke-linecap:butt;stroke-linejoin:miter;stroke:rgb(0%,0%,0%);stroke-opacity:1;stroke-miterlimit:10;" d="M 169.070312 133.828125 L 182.8125 140.632812 "/>
<path style="fill:none;stroke-width:1.2;stroke-linecap:butt;stroke-linejoin:miter;stroke:rgb(0%,0%,0%);stroke-opacity:1;stroke-miterlimit:10;" d="M 164.128906 117.886719 L 165.351562 137.019531 "/>
<path style="fill:none;stroke-width:1.2;stroke-linecap:butt;stroke-linejoin:miter;stroke:rgb(0%,0%,0%);stroke-opacity:1;stroke-miterlimit:10;" d="M 182.527344 145.527344 L 198.484375 134.90625 "/>
<path style="fill:none;stroke-width:1.2;stroke-linecap:butt;stroke-linejoin:miter;stroke:rgb(0%,0%,0%);stroke-opacity:1;stroke-miterlimit:10;" d="M 198.484375 134.90625 L 197.875 125.339844 "/>
<path style="fill:none;stroke-width:1.2;stroke-linecap:butt;stroke-linejoin:miter;stroke:rgb(0%,0%,100%);stroke-opacity:1;stroke-miterlimit:10;" d="M 197.875 125.339844 L 197.265625 115.773438 "/>
<path style="fill:none;stroke-width:1.2;stroke-linecap:butt;stroke-linejoin:miter;stroke:rgb(0%,0%,0%);stroke-opacity:1;stroke-miterlimit:10;" d="M 193.863281 133.277344 L 193.375 125.625 "/>
<path style="fill:none;stroke-width:1.2;stroke-linecap:butt;stroke-linejoin:miter;stroke:rgb(0%,0%,100%);stroke-opacity:1;stroke-miterlimit:10;" d="M 193.375 125.625 L 192.886719 117.972656 "/>
<path style="fill:none;stroke-width:1.2;stroke-linecap:butt;stroke-linejoin:miter;stroke:rgb(0%,0%,0%);stroke-opacity:1;stroke-miterlimit:10;" d="M 198.484375 134.90625 L 207.074219 139.160156 "/>
<path style="fill:none;stroke-width:1.2;stroke-linecap:butt;stroke-linejoin:miter;stroke:rgb(0%,0%,100%);stroke-opacity:1;stroke-miterlimit:10;" d="M 207.074219 139.160156 L 215.664062 143.414062 "/>
<path style="fill:none;stroke-width:1.2;stroke-linecap:butt;stroke-linejoin:miter;stroke:rgb(0%,0%,100%);stroke-opacity:1;stroke-miterlimit:10;" d="M 197.265625 115.773438 L 188.675781 111.519531 "/>
<path style="fill:none;stroke-width:1.2;stroke-linecap:butt;stroke-linejoin:miter;stroke:rgb(0%,0%,0%);stroke-opacity:1;stroke-miterlimit:10;" d="M 188.675781 111.519531 L 180.085938 107.265625 "/>
<path style=" stroke:none;fill-rule:nonzero;fill:rgb(100%,100%,100%);fill-opacity:1;" d="M 194.265625 110.273438 L 201.265625 110.273438 L 201.265625 121.273438 L 194.265625 121.273438 Z M 194.265625 110.273438 "/>
<g style="fill:rgb(0%,0%,100%);fill-opacity:1;">
  <use xlink:href="#glyph0-2" x="194.265625" y="118.936523"/>
</g>
<path style="fill:none;stroke-width:1.2;stroke-linecap:butt;stroke-linejoin:miter;stroke:rgb(0%,0%,0%);stroke-opacity:1;stroke-miterlimit:10;" d="M 180.085938 107.265625 L 164.128906 117.886719 "/>
<path style="fill:none;stroke-width:1.2;stroke-linecap:butt;stroke-linejoin:miter;stroke:rgb(0%,0%,0%);stroke-opacity:1;stroke-miterlimit:10;" d="M 180.992188 112.082031 L 168.222656 120.582031 "/>
<path style="fill:none;stroke-width:1.2;stroke-linecap:butt;stroke-linejoin:miter;stroke:rgb(0%,0%,100%);stroke-opacity:1;stroke-miterlimit:10;" d="M 215.664062 143.414062 L 216.273438 152.980469 "/>
<path style="fill:none;stroke-width:1.2;stroke-linecap:butt;stroke-linejoin:miter;stroke:rgb(0%,0%,0%);stroke-opacity:1;stroke-miterlimit:10;" d="M 216.273438 152.980469 L 216.882812 162.542969 "/>
<path style=" stroke:none;fill-rule:nonzero;fill:rgb(100%,100%,100%);fill-opacity:1;" d="M 208.664062 137.914062 L 222.664062 137.914062 L 222.664062 148.914062 L 208.664062 148.914062 Z M 208.664062 137.914062 "/>
<g style="fill:rgb(0%,0%,100%);fill-opacity:1;">
  <use xlink:href="#glyph0-2" x="208.664062" y="146.577148"/>
  <use xlink:href="#glyph0-3" x="215.641602" y="146.577148"/>
</g>
<path style="fill:none;stroke-width:1.2;stroke-linecap:butt;stroke-linejoin:miter;stroke:rgb(0%,0%,0%);stroke-opacity:1;stroke-miterlimit:10;" d="M 215.632812 160.667969 L 207.65625 165.976562 "/>
<path style="fill:none;stroke-width:1.2;stroke-linecap:butt;stroke-linejoin:miter;stroke:rgb(100%,0%,0%);stroke-opacity:1;stroke-miterlimit:10;" d="M 207.65625 165.976562 L 199.675781 171.289062 "/>
<path style="fill:none;stroke-width:1.2;stroke-linecap:butt;stroke-linejoin:miter;stroke:rgb(0%,0%,0%);stroke-opacity:1;stroke-miterlimit:10;" d="M 218.132812 164.421875 L 210.15625 169.730469 "/>
<path style="fill:none;stroke-width:1.2;stroke-linecap:butt;stroke-linejoin:miter;stroke:rgb(100%,0%,0%);stroke-opacity:1;stroke-miterlimit:10;" d="M 210.15625 169.730469 L 202.175781 175.042969 "/>
<path style="fill:none;stroke-width:1.2;stroke-linecap:butt;stroke-linejoin:miter;stroke:rgb(0%,0%,0%);stroke-opacity:1;stroke-miterlimit:10;" d="M 216.882812 162.542969 L 234.0625 171.050781 "/>
<path style=" stroke:none;fill-rule:nonzero;fill:rgb(100%,100%,100%);fill-opacity:1;" d="M 192.925781 167.667969 L 200.925781 167.667969 L 200.925781 178.667969 L 192.925781 178.667969 Z M 192.925781 167.667969 "/>
<g style="fill:rgb(100%,0%,0%);fill-opacity:1;">
  <use xlink:href="#glyph0-4" x="192.925781" y="176.331055"/>
</g>
<path style="fill:none;stroke-width:1.2;stroke-linecap:butt;stroke-linejoin:miter;stroke:rgb(0%,0%,0%);stroke-opacity:1;stroke-miterlimit:10;" d="M 234.0625 171.050781 L 251.042969 162.15625 "/>
<path style="fill:none;stroke-width:1.2;stroke-linecap:butt;stroke-linejoin:miter;stroke:rgb(0%,0%,0%);stroke-opacity:1;stroke-miterlimit:10;" d="M 237.273438 189.949219 L 234.0625 171.050781 "/>
<path style="fill:none;stroke-width:1.2;stroke-linecap:butt;stroke-linejoin:miter;stroke:rgb(0%,0%,0%);stroke-opacity:1;stroke-miterlimit:10;" d="M 251.042969 162.15625 L 264.75 175.554688 "/>
<path style="fill:none;stroke-width:1.2;stroke-linecap:butt;stroke-linejoin:miter;stroke:rgb(0%,0%,0%);stroke-opacity:1;stroke-miterlimit:10;" d="M 264.75 175.554688 L 260.496094 184.144531 "/>
<path style="fill:none;stroke-width:1.2;stroke-linecap:butt;stroke-linejoin:miter;stroke:rgb(100%,0%,0%);stroke-opacity:1;stroke-miterlimit:10;" d="M 260.496094 184.144531 L 256.242188 192.734375 "/>
<path style="fill:none;stroke-width:1.2;stroke-linecap:butt;stroke-linejoin:miter;stroke:rgb(100%,0%,0%);stroke-opacity:1;stroke-miterlimit:10;" d="M 256.242188 192.734375 L 246.757812 191.34375 "/>
<path style="fill:none;stroke-width:1.2;stroke-linecap:butt;stroke-linejoin:miter;stroke:rgb(0%,0%,0%);stroke-opacity:1;stroke-miterlimit:10;" d="M 246.757812 191.34375 L 237.273438 189.949219 "/>
<path style=" stroke:none;fill-rule:nonzero;fill:rgb(100%,100%,100%);fill-opacity:1;" d="M 252.242188 187.234375 L 260.242188 187.234375 L 260.242188 198.234375 L 252.242188 198.234375 Z M 252.242188 187.234375 "/>
<g style="fill:rgb(100%,0%,0%);fill-opacity:1;">
  <use xlink:href="#glyph0-4" x="252.242188" y="195.897461"/>
</g>
<path style="fill:none;stroke-width:1.2;stroke-linecap:butt;stroke-linejoin:miter;stroke:rgb(0%,0%,0%);stroke-opacity:1;stroke-miterlimit:10;" d="M 84.34375 171 L 68.386719 181.621094 "/>
<path style="fill:none;stroke-width:1.2;stroke-linecap:butt;stroke-linejoin:miter;stroke:rgb(0%,0%,0%);stroke-opacity:1;stroke-miterlimit:10;" d="M 80.246094 168.308594 L 67.480469 176.804688 "/>
</g>
</svg>

<svg xmlns="http://www.w3.org/2000/svg" xmlns:xlink="http://www.w3.org/1999/xlink" width="300pt" height="300pt" viewBox="0 0 300 300"><defs><symbol overflow="visible"><path d="M.453 1.594v-7.938h4.5v7.938zm.5-.5h3.5v-6.938h-3.5zm0 0"/></symbol><symbol overflow="visible" id="a"><path d="M.89-6.563h3.766v.75h-2.89v1.938h2.61v.734h-2.61V0H.89zm0 0"/></symbol><symbol overflow="visible" id="b"><path d="M.89-6.563H2.08l2.906 5.485v-5.484h.86V0H4.656L1.75-5.484V0H.89zm0 0"/></symbol><symbol overflow="visible" id="c"><path d="M.89-6.563h.876v2.688H5v-2.688h.89V0H5v-3.125H1.766V0H.89zm0 0"/></symbol><symbol overflow="visible" id="d"><path d="M3.547-5.953c-.65 0-1.164.242-1.547.72-.375.48-.563 1.13-.563 1.952 0 .835.188 1.49.563 1.967.383.48.898.72 1.547.72.644 0 1.156-.24 1.53-.72.376-.476.564-1.132.564-1.968 0-.822-.187-1.474-.562-1.954-.375-.477-.887-.72-1.53-.72zm0-.734c.914 0 1.648.312 2.203.937.55.617.828 1.438.828 2.47 0 1.042-.277 1.87-.828 2.483-.555.617-1.29.922-2.203.922-.93 0-1.668-.305-2.22-.922C.774-1.41.5-2.237.5-3.28c0-1.033.273-1.853.828-2.47.55-.625 1.29-.938 2.22-.938zm0 0"/></symbol></defs><g><path fill="#fff" d="M0 0h300v300H0z"/><path d="M35.25 183.738l7.98-5.312" stroke-width="1.2" stroke="#3cc" stroke-miterlimit="10" fill="none"/><path d="M43.23 178.426l7.977-5.313" stroke-width="1.2" stroke="#000" stroke-miterlimit="10" fill="none"/><path d="M29.25 178.238h6v11h-6zm0 0" fill="#fff"/><use xlink:href="#a" x="29.25" y="186.901" fill="#3cc"/><path d="M51.207 173.113l-1.22-19.13M55.586 170.914l-.977-15.305M68.387 181.62l-17.18-8.507M49.988 153.984l15.957-10.62M65.945 143.363l17.176 8.508M65.66 148.254l13.742 6.81M83.12 151.87l7.982-5.31" stroke-width="1.2" stroke="#000" stroke-miterlimit="10" fill="none"/><path d="M91.102 146.56l7.976-5.314" stroke-width="1.2" stroke="#00f" stroke-miterlimit="10" fill="none"/><path d="M83.12 151.87L84.345 171" stroke-width="1.2" stroke="#000" stroke-miterlimit="10" fill="none"/><path d="M99.078 141.246l8.59 4.254" stroke-width="1.2" stroke="#00f" stroke-miterlimit="10" fill="none"/><path d="M107.668 145.5l8.59 4.254" stroke-width="1.2" stroke="#000" stroke-miterlimit="10" fill="none"/><path d="M92.078 135.746h14v11h-14zm0 0" fill="#fff"/><g fill="#00f"><use xlink:href="#b" x="92.078" y="144.409"/><use xlink:href="#c" x="99.056" y="144.409"/></g><path d="M116.258 149.754l.61 9.566" stroke-width="1.2" stroke="#000" stroke-miterlimit="10" fill="none"/><path d="M116.867 159.32l.61 9.567" stroke-width="1.2" stroke="#00f" stroke-miterlimit="10" fill="none"/><path d="M120.88 151.383l.487 7.652" stroke-width="1.2" stroke="#000" stroke-miterlimit="10" fill="none"/><path d="M121.367 159.035l.488 7.653" stroke-width="1.2" stroke="#00f" stroke-miterlimit="10" fill="none"/><path d="M132.215 139.133l-15.957 10.62" stroke-width="1.2" stroke="#000" stroke-miterlimit="10" fill="none"/><path d="M117.477 168.887l8.59 4.254" stroke-width="1.2" stroke="#00f" stroke-miterlimit="10" fill="none"/><path d="M126.066 173.14l8.59 4.255" stroke-width="1.2" stroke="#000" stroke-miterlimit="10" fill="none"/><path d="M114.477 163.387h7v11h-7zm0 0" fill="#fff"/><use xlink:href="#b" x="114.477" y="172.05" fill="#00f"/><path d="M134.656 177.395l15.957-10.622M133.754 172.578l12.766-8.5M150.613 166.773l-1.218-19.132M149.395 147.64l-17.18-8.507M145.672 150.832l-13.742-6.805M149.395 147.64l15.957-10.62M165.352 137.02l17.175 8.507M169.07 133.828l13.743 6.805M164.13 117.887l1.222 19.133M182.527 145.527l15.957-10.62M198.484 134.906l-.61-9.566" stroke-width="1.2" stroke="#000" stroke-miterlimit="10" fill="none"/><path d="M197.875 125.34l-.61-9.567" stroke-width="1.2" stroke="#00f" stroke-miterlimit="10" fill="none"/><path d="M193.863 133.277l-.488-7.652" stroke-width="1.2" stroke="#000" stroke-miterlimit="10" fill="none"/><path d="M193.375 125.625l-.488-7.652" stroke-width="1.2" stroke="#00f" stroke-miterlimit="10" fill="none"/><path d="M198.484 134.906l8.59 4.254" stroke-width="1.2" stroke="#000" stroke-miterlimit="10" fill="none"/><path d="M207.074 139.16l8.59 4.254M197.266 115.773l-8.59-4.253" stroke-width="1.2" stroke="#00f" stroke-miterlimit="10" fill="none"/><path d="M188.676 111.52l-8.59-4.254" stroke-width="1.2" stroke="#000" stroke-miterlimit="10" fill="none"/><path d="M194.266 110.273h7v11h-7zm0 0" fill="#fff"/><use xlink:href="#b" x="194.266" y="118.937" fill="#00f"/><path d="M180.086 107.266l-15.957 10.62M180.992 112.082l-12.77 8.5" stroke-width="1.2" stroke="#000" stroke-miterlimit="10" fill="none"/><path d="M215.664 143.414l.61 9.566" stroke-width="1.2" stroke="#00f" stroke-miterlimit="10" fill="none"/><path d="M216.273 152.98l.61 9.563" stroke-width="1.2" stroke="#000" stroke-miterlimit="10" fill="none"/><path d="M208.664 137.914h14v11h-14zm0 0" fill="#fff"/><g fill="#00f"><use xlink:href="#b" x="208.664" y="146.577"/><use xlink:href="#c" x="215.642" y="146.577"/></g><path d="M215.633 160.668l-7.977 5.31" stroke-width="1.2" stroke="#000" stroke-miterlimit="10" fill="none"/><path d="M207.656 165.977l-7.98 5.312" stroke-width="1.2" stroke="#f00" stroke-miterlimit="10" fill="none"/><path d="M218.133 164.422l-7.977 5.308" stroke-width="1.2" stroke="#000" stroke-miterlimit="10" fill="none"/><path d="M210.156 169.73l-7.98 5.313" stroke-width="1.2" stroke="#f00" stroke-miterlimit="10" fill="none"/><path d="M216.883 162.543l17.18 8.508" stroke-width="1.2" stroke="#000" stroke-miterlimit="10" fill="none"/><path d="M192.926 167.668h8v11h-8zm0 0" fill="#fff"/><use xlink:href="#d" x="192.926" y="176.331" fill="#f00"/><path d="M234.063 171.05l16.98-8.894M237.273 189.95l-3.21-18.9M251.043 162.156l13.707 13.4M264.75 175.555l-4.254 8.59" stroke-width="1.2" stroke="#000" stroke-miterlimit="10" fill="none"/><path d="M260.496 184.145l-4.254 8.59M256.242 192.734l-9.484-1.39" stroke-width="1.2" stroke="#f00" stroke-miterlimit="10" fill="none"/><path d="M246.758 191.344l-9.485-1.395" stroke-width="1.2" stroke="#000" stroke-miterlimit="10" fill="none"/><path d="M252.242 187.234h8v11h-8zm0 0" fill="#fff"/><use xlink:href="#d" x="252.242" y="195.897" fill="#f00"/><path d="M84.344 171l-15.957 10.62M80.246 168.31l-12.766 8.495" stroke-width="1.2" stroke="#000" stroke-miterlimit="10" fill="none"/></g></svg>
